svg/fluentui-system-icons/ic_fluent_mic_settings_24_filled.svg

<svg width="24" height="24" viewBox="0 0 24 24" fill="none" xmlns="http://www.w3.org/2000/svg">
<path d="M11 17.5C11 18.596 11.2713 19.6287 11.7503 20.5345L11.75 21.25C11.75 21.6642 11.4142 22 11 22C10.6203 22 10.3065 21.7178 10.2568 21.3518L10.25 21.25L10.25 18.9818C6.83323 18.7316 4.12283 15.938 4.00406 12.4863L4 12.25V11.75C4 11.3358 4.33579 11 4.75 11C5.1297 11 5.44349 11.2822 5.49315 11.6482L5.5 11.75V12.25C5.5 15.077 7.73445 17.3821 10.5336 17.4956L10.75 17.5H11ZM11.1748 15.9962C11.6577 13.9575 13.1007 12.2902 15 11.4982V6C15 3.79086 13.2091 2 11 2C8.79086 2 7 3.79086 7 6V12C7 14.2091 8.79086 16 11 16C11.0586 16 11.1169 15.9987 11.1748 15.9962ZM14.2782 13.9754C14.593 15.0656 13.9386 16.1991 12.837 16.4716L12.2528 16.6161C12.2079 16.9038 12.1846 17.199 12.1846 17.4998C12.1846 17.8145 12.2101 18.123 12.2592 18.4232L12.7986 18.5532C13.9111 18.8211 14.5725 19.9661 14.2486 21.0636L14.0623 21.6949C14.5014 22.0805 15.0019 22.3937 15.5464 22.6165L16.0397 22.0977C16.8283 21.2685 18.1506 21.2687 18.9388 22.0982L19.4375 22.623C19.9811 22.4027 20.4811 22.0925 20.9204 21.7101L20.7223 21.0242C20.4076 19.9339 21.062 18.8005 22.1635 18.528L22.7472 18.3835C22.7922 18.0958 22.8155 17.8006 22.8155 17.4998C22.8155 17.1851 22.7899 16.8765 22.7409 16.5762L22.2019 16.4464C21.0894 16.1785 20.4281 15.0335 20.7519 13.9359L20.9381 13.3051C20.499 12.9193 19.9985 12.6061 19.4539 12.3833L18.9608 12.9018C18.1722 13.7311 16.85 13.7309 16.0617 12.9013L15.5629 12.3765C15.0193 12.5967 14.5194 12.9068 14.0801 13.2892L14.2782 13.9754ZM17.5 18.9998C16.6994 18.9998 16.0504 18.3282 16.0504 17.4998C16.0504 16.6714 16.6994 15.9998 17.5 15.9998C18.3007 15.9998 18.9497 16.6714 18.9497 17.4998C18.9497 18.3282 18.3007 18.9998 17.5 18.9998Z" fill="#212121"/>
</svg>

<svg xmlns="http://www.w3.org/2000/svg" width="24" height="24"><path d="M11 17.5c0 1.096.271 2.129.75 3.035v.715a.75.75 0 0 1-1.493.102l-.007-.102v-2.268a6.75 6.75 0 0 1-6.246-6.496L4 12.25v-.5a.75.75 0 0 1 1.493-.102l.007.102v.5a5.25 5.25 0 0 0 5.034 5.246l.216.004H11Zm.175-1.504A6.513 6.513 0 0 1 15 11.498V6a4 4 0 0 0-8 0v6a4 4 0 0 0 4.175 3.996Zm3.103-2.02a2 2 0 0 1-1.441 2.496l-.584.144a5.729 5.729 0 0 0 .006 1.807l.54.13a2 2 0 0 1 1.45 2.51l-.187.632c.44.386.94.699 1.484.921l.494-.518a2 2 0 0 1 2.899 0l.498.525a5.281 5.281 0 0 0 1.483-.913l-.198-.686a2 2 0 0 1 1.441-2.496l.584-.144a5.716 5.716 0 0 0-.006-1.808l-.54-.13a2 2 0 0 1-1.45-2.51l.187-.63a5.278 5.278 0 0 0-1.484-.923l-.493.519a2 2 0 0 1-2.9 0l-.498-.525c-.544.22-1.044.53-1.483.912l.198.686ZM17.5 19c-.8 0-1.45-.672-1.45-1.5 0-.829.65-1.5 1.45-1.5.8 0 1.45.671 1.45 1.5 0 .828-.65 1.5-1.45 1.5Z"/></svg>
